images/icon-github.svg

<?xml version="1.0" encoding="UTF-8"?>
<svg width="512px" height="492px" viewBox="0 0 512 492" version="1.1" xmlns="http://www.w3.org/2000/svg" xmlns:xlink="http://www.w3.org/1999/xlink">
    <!-- Generator: Sketch 64 (93537) - https://sketch.com -->
    <title>icon-github</title>
    <desc>Created with Sketch.</desc>
    <g id="Page-1" stroke="none" stroke-width="1" fill="none" fill-rule="evenodd">
        <g id="icon-github" fill="#A3ACB9" fill-rule="nonzero">
            <path d="M256,0.666666667 C114.56,0.666666667 0,113.306667 0,252.229333 C0,363.397333 73.344,457.669333 175.04,490.906667 C187.84,493.274667 192.533333,485.488 192.533333,478.810667 C192.533333,472.837333 192.32,457.008 192.213333,436.037333 C121.002667,451.205333 105.984,402.288 105.984,402.288 C94.336,373.253333 77.504,365.488 77.504,365.488 C54.3146667,349.893333 79.296,350.213333 79.296,350.213333 C105.002667,351.962667 118.506667,376.133333 118.506667,376.133333 C141.333333,414.597333 178.432,403.482667 193.066667,397.061333 C195.370667,380.784 201.962667,369.712 209.28,363.418667 C152.426667,357.125333 92.672,335.493333 92.672,239.109333 C92.672,211.653333 102.592,189.210667 119.018667,171.610667 C116.138667,165.253333 107.498667,139.674667 121.258667,105.029333 C121.258667,105.029333 142.698667,98.288 191.658667,130.821333 C212.138667,125.232 233.898667,122.458667 255.658667,122.330667 C277.418667,122.458667 299.178667,125.232 319.658667,130.821333 C368.298667,98.288 389.738667,105.029333 389.738667,105.029333 C403.498667,139.674667 394.858667,165.253333 392.298667,171.610667 C408.618667,189.210667 418.538667,211.653333 418.538667,239.109333 C418.538667,335.749333 358.698667,357.018667 301.738667,363.205333 C310.698667,370.757333 319.018667,386.181333 319.018667,409.754667 C319.018667,443.418667 318.698667,470.469333 318.698667,478.64 C318.698667,485.232 323.178667,493.104 336.298667,490.586667 C438.72,457.562667 512,363.226667 512,252.229333 C512,113.306667 397.376,0.666666667 256,0.666666667 Z" id="Path"></path>
        </g>
    </g>
</svg>

<svg width="512" height="492" xmlns="http://www.w3.org/2000/svg"><path d="M256 .667C114.56.667 0 113.307 0 252.229c0 111.168 73.344 205.44 175.04 238.678 12.8 2.368 17.493-5.419 17.493-12.096 0-5.974-.213-21.803-.32-42.774-71.21 15.168-86.229-33.749-86.229-33.749-11.648-29.035-28.48-36.8-28.48-36.8-23.19-15.595 1.792-15.275 1.792-15.275 25.707 1.75 39.21 25.92 39.21 25.92 22.827 38.464 59.926 27.35 74.56 20.928 2.305-16.277 8.897-27.349 16.214-33.642-56.853-6.294-116.608-27.926-116.608-124.31 0-27.456 9.92-49.898 26.347-67.498-2.88-6.358-11.52-31.936 2.24-66.582 0 0 21.44-6.741 70.4 25.792 20.48-5.589 42.24-8.362 64-8.49 21.76.128 43.52 2.901 64 8.49 48.64-32.533 70.08-25.792 70.08-25.792 13.76 34.646 5.12 60.224 2.56 66.582 16.32 17.6 26.24 40.042 26.24 67.498 0 96.64-59.84 117.91-116.8 124.096 8.96 7.552 17.28 22.976 17.28 46.55 0 33.664-.32 60.714-.32 68.885 0 6.592 4.48 14.464 17.6 11.947C438.72 457.563 512 363.227 512 252.229 512 113.307 397.376.667 256 .667z" fill="#A3ACB9" fill-rule="nonzero"/></svg>
